Catalina-light/actions/22/document-edit-decrypt-verify.svg

<svg xmlns="http://www.w3.org/2000/svg" viewBox="0 0 22 22">
  <defs id="defs3051">
    <style type="text/css" id="current-color-scheme">
      .ColorScheme-Text {
        color:#4d4d4d
      }
      </style>
  </defs>
    <path
       style="fill:currentColor;fill-opacity:1;stroke:none"
       class="ColorScheme-Text"
       d="M 4.77672,3 C 4.34579,3 4,3.35758 4,3.80078 L 4,18.19922 C 4,18.64242 4.34579,19 4.77672,19 l 12.44656,0 C 17.65421,19 18,18.64242 18,18.19922 L 18,3.80078 C 18,3.35758 17.65421,3 17.22328,3 L 4.77672,3 Z M 5.65409,3.73633 A 0.88559081,0.91079472 0 0 1 6.54096,4.64648 0.88559081,0.91079472 0 0 1 5.65409,5.55859 0.88559081,0.91079472 0 0 1 4.76913,4.64648 0.88559081,0.91079472 0 0 1 5.65409,3.73633 Z m 2.15356,0 A 0.88559081,0.91079472 0 0 1 8.69451,4.64648 0.88559081,0.91079472 0 0 1 7.80765,5.55859 0.88559081,0.91079472 0 0 1 6.92268,4.64648 0.88559081,0.91079472 0 0 1 7.80765,3.73633 Z m 2.17065,0 A 0.88559081,0.91079472 0 0 1 10.86517,4.64648 0.88559081,0.91079472 0 0 1 9.9783,5.55859 0.88559081,0.91079472 0 0 1 9.09332,4.64648 0.88559081,0.91079472 0 0 1 9.9783,3.73633 Z m 2.14785,0 a 0.88559081,0.91079472 0 0 1 0.88687,0.91015 0.88559081,0.91079472 0 0 1 -0.88687,0.91211 0.88559081,0.91079472 0 0 1 -0.88496,-0.91211 0.88559081,0.91079472 0 0 1 0.88496,-0.91015 z m 2.11367,0 A 0.88559081,0.91079472 0 0 1 15.1248,4.64648 0.88559081,0.91079472 0 0 1 14.23982,5.55664 0.88559081,0.91079472 0 0 1 13.35295,4.64648 0.88559081,0.91079472 0 0 1 14.23982,3.73633 Z m 2.10609,0 A 0.88559081,0.91079472 0 0 1 17.23087,4.64648 0.88559081,0.91079472 0 0 1 16.34591,5.55859 0.88559081,0.91079472 0 0 1 15.45904,4.64648 0.88559081,0.91079472 0 0 1 16.34591,3.73633 Z M 6.70809,5.91406 A 0.88559081,0.91079472 0 0 1 7.59305,6.82617 0.88559081,0.91079472 0 0 1 6.70809,7.73633 0.88559081,0.91079472 0 0 1 5.82311,6.82617 0.88559081,0.91079472 0 0 1 6.70809,5.91406 Z m 2.15355,0 A 0.88559081,0.91079472 0 0 1 9.74661,6.82422 0.88559081,0.91079472 0 0 1 8.86164,7.73633 0.88559081,0.91079472 0 0 1 7.97477,6.82422 0.88559081,0.91079472 0 0 1 8.86164,5.91406 Z m 2.17064,0 a 0.88559081,0.91079472 0 0 1 0.88497,0.91016 0.88559081,0.91079472 0 0 1 -0.88497,0.91211 0.88559081,0.91079472 0 0 1 -0.88496,-0.91211 0.88559081,0.91079472 0 0 1 0.88496,-0.91016 z m 2.14786,0 a 0.88559081,0.91079472 0 0 1 0.88497,0.91016 0.88559081,0.91079472 0 0 1 -0.88497,0.91211 0.88559081,0.91079472 0 0 1 -0.88687,-0.91211 0.88559081,0.91079472 0 0 1 0.88687,-0.91016 z m 2.11177,0 A 0.88559081,0.91079472 0 0 1 16.17689,6.82422 0.88559081,0.91079472 0 0 1 15.29191,7.73633 0.88559081,0.91079472 0 0 1 14.40694,6.82422 0.88559081,0.91079472 0 0 1 15.29191,5.91406 Z M 5.65409,8.11133 A 0.88559081,0.91079472 0 0 1 6.54096,9.02344 0.88559081,0.91079472 0 0 1 5.65409,9.93359 0.88559081,0.91079472 0 0 1 4.76913,9.02344 0.88559081,0.91079472 0 0 1 5.65409,8.11133 Z m 2.15356,0 A 0.88559081,0.91079472 0 0 1 8.69451,9.02148 0.88559081,0.91079472 0 0 1 7.80765,9.93359 0.88559081,0.91079472 0 0 1 6.92268,9.02148 0.88559081,0.91079472 0 0 1 7.80765,8.11133 Z m 2.17065,0 A 0.88559081,0.91079472 0 0 1 10.86517,9.02148 0.88559081,0.91079472 0 0 1 9.9783,9.93359 0.88559081,0.91079472 0 0 1 9.09332,9.02148 0.88559081,0.91079472 0 0 1 9.9783,8.11133 Z m 2.14785,0 a 0.88559081,0.91079472 0 0 1 0.88687,0.91015 0.88559081,0.91079472 0 0 1 -0.88687,0.91211 0.88559081,0.91079472 0 0 1 -0.88496,-0.91211 0.88559081,0.91079472 0 0 1 0.88496,-0.91015 z m 2.11367,0 A 0.88559081,0.91079472 0 0 1 15.1248,9.02148 0.88559081,0.91079472 0 0 1 14.23982,9.93359 0.88559081,0.91079472 0 0 1 13.35295,9.02148 0.88559081,0.91079472 0 0 1 14.23982,8.11133 Z m 2.10609,0 a 0.88559081,0.91079472 0 0 1 0.88496,0.91015 0.88559081,0.91079472 0 0 1 -0.88496,0.91211 0.88559081,0.91079472 0 0 1 -0.88687,-0.91211 0.88559081,0.91079472 0 0 1 0.88687,-0.91015 z m -5.55101,3.41406 c 0.35926,0.0241 0.69905,0.11778 1.01791,0.2832 0.31876,0.16537 0.58896,0.37857 0.8109,0.63868 0.22194,0.2601 0.39092,0.56357 0.50895,0.91015 0.11808,0.34654 0.16586,0.70473 0.14243,1.07422 -0.0361,0.56843 -0.22506,1.07403 -0.56592,1.51563 l 1.20971,1.41601 c 0.0869,0.10181 0.12457,0.22056 0.11584,0.35742 -0.009,0.13434 -0.0635,0.24811 -0.16522,0.33985 -0.10159,0.0918 -0.2169,0.13181 -0.34753,0.12304 -0.13575,-0.009 -0.24624,-0.0657 -0.33044,-0.16992 L 11.98372,16.60156 C 11.51371,16.89179 11.00206,17.0195 10.44926,16.98242 10.09001,16.95832 9.75017,16.86269 9.43136,16.69727 9.11261,16.53185 8.8424,16.3207 8.62045,16.06055 8.39851,15.80044 8.22954,15.49693 8.11151,15.15039 7.99343,14.80376 7.94564,14.44566 7.96907,14.07617 7.99247,13.70669 8.0855,13.35718 8.24634,13.0293 c 0.16079,-0.32784 0.36619,-0.60573 0.6191,-0.83399 0.2529,-0.22826 0.54797,-0.40205 0.88496,-0.52343 0.33695,-0.12144 0.68524,-0.17059 1.0445,-0.14649 z m -0.0626,0.99219 c -0.46477,-0.0312 -0.873,0.11204 -1.22491,0.42969 -0.35189,0.31759 -0.54321,0.71536 -0.57352,1.19336 -0.0303,0.47804 0.10895,0.8978 0.4178,1.25976 0.30885,0.36191 0.69557,0.55867 1.16034,0.58984 0.46481,0.0312 0.87295,-0.11204 1.2249,-0.42968 0.3519,-0.31765 0.54321,-0.71532 0.57352,-1.19336 0.0303,-0.478 -0.10894,-0.89785 -0.41779,-1.25977 -0.3089,-0.36192 -0.69558,-0.55867 -1.16034,-0.58984 z"
        />
</svg>

<svg viewBox="0 0 22 22" xmlns="http://www.w3.org/2000/svg">
<defs>
<style id="current-color-scheme" type="text/css">.ColorScheme-Text {
        color:#4d4d4d
      }</style>
</defs>
<path class="ColorScheme-Text" d="m4.7767 3c-0.43093 0-0.77672 0.35758-0.77672 0.80078v14.398c0 0.4432 0.34579 0.80078 0.77672 0.80078h12.447c0.43093 0 0.77672-0.35758 0.77672-0.80078v-14.398c0-0.4432-0.34579-0.80078-0.77672-0.80078h-12.447zm0.87737 0.73633a0.88559 0.91079 0 0 1 0.88687 0.91015 0.88559 0.91079 0 0 1-0.88687 0.91211 0.88559 0.91079 0 0 1-0.88496-0.91211 0.88559 0.91079 0 0 1 0.88496-0.91015zm2.1536 0a0.88559 0.91079 0 0 1 0.88686 0.91015 0.88559 0.91079 0 0 1-0.88686 0.91211 0.88559 0.91079 0 0 1-0.88497-0.91211 0.88559 0.91079 0 0 1 0.88497-0.91015zm2.1706 0a0.88559 0.91079 0 0 1 0.88687 0.91015 0.88559 0.91079 0 0 1-0.88687 0.91211 0.88559 0.91079 0 0 1-0.88498-0.91211 0.88559 0.91079 0 0 1 0.88498-0.91015zm2.1478 0a0.88559 0.91079 0 0 1 0.88687 0.91015 0.88559 0.91079 0 0 1-0.88687 0.91211 0.88559 0.91079 0 0 1-0.88496-0.91211 0.88559 0.91079 0 0 1 0.88496-0.91015zm2.1137 0a0.88559 0.91079 0 0 1 0.88498 0.91015 0.88559 0.91079 0 0 1-0.88498 0.91016 0.88559 0.91079 0 0 1-0.88687-0.91016 0.88559 0.91079 0 0 1 0.88687-0.91015zm2.1061 0a0.88559 0.91079 0 0 1 0.88496 0.91015 0.88559 0.91079 0 0 1-0.88496 0.91211 0.88559 0.91079 0 0 1-0.88687-0.91211 0.88559 0.91079 0 0 1 0.88687-0.91015zm-9.6378 2.1777a0.88559 0.91079 0 0 1 0.88496 0.91211 0.88559 0.91079 0 0 1-0.88496 0.91016 0.88559 0.91079 0 0 1-0.88498-0.91016 0.88559 0.91079 0 0 1 0.88498-0.91211zm2.1536 0a0.88559 0.91079 0 0 1 0.88497 0.91016 0.88559 0.91079 0 0 1-0.88497 0.91211 0.88559 0.91079 0 0 1-0.88687-0.91211 0.88559 0.91079 0 0 1 0.88687-0.91016zm2.1706 0a0.88559 0.91079 0 0 1 0.88497 0.91016 0.88559 0.91079 0 0 1-0.88497 0.91211 0.88559 0.91079 0 0 1-0.88496-0.91211 0.88559 0.91079 0 0 1 0.88496-0.91016zm2.1479 0a0.88559 0.91079 0 0 1 0.88497 0.91016 0.88559 0.91079 0 0 1-0.88497 0.91211 0.88559 0.91079 0 0 1-0.88687-0.91211 0.88559 0.91079 0 0 1 0.88687-0.91016zm2.1118 0a0.88559 0.91079 0 0 1 0.88498 0.91016 0.88559 0.91079 0 0 1-0.88498 0.91211 0.88559 0.91079 0 0 1-0.88497-0.91211 0.88559 0.91079 0 0 1 0.88497-0.91016zm-9.6378 2.1973a0.88559 0.91079 0 0 1 0.88687 0.91211 0.88559 0.91079 0 0 1-0.88687 0.91015 0.88559 0.91079 0 0 1-0.88496-0.91015 0.88559 0.91079 0 0 1 0.88496-0.91211zm2.1536 0a0.88559 0.91079 0 0 1 0.88686 0.91015 0.88559 0.91079 0 0 1-0.88686 0.91211 0.88559 0.91079 0 0 1-0.88497-0.91211 0.88559 0.91079 0 0 1 0.88497-0.91015zm2.1706 0a0.88559 0.91079 0 0 1 0.88687 0.91015 0.88559 0.91079 0 0 1-0.88687 0.91211 0.88559 0.91079 0 0 1-0.88498-0.91211 0.88559 0.91079 0 0 1 0.88498-0.91015zm2.1478 0a0.88559 0.91079 0 0 1 0.88687 0.91015 0.88559 0.91079 0 0 1-0.88687 0.91211 0.88559 0.91079 0 0 1-0.88496-0.91211 0.88559 0.91079 0 0 1 0.88496-0.91015zm2.1137 0a0.88559 0.91079 0 0 1 0.88498 0.91015 0.88559 0.91079 0 0 1-0.88498 0.91211 0.88559 0.91079 0 0 1-0.88687-0.91211 0.88559 0.91079 0 0 1 0.88687-0.91015zm2.1061 0a0.88559 0.91079 0 0 1 0.88496 0.91015 0.88559 0.91079 0 0 1-0.88496 0.91211 0.88559 0.91079 0 0 1-0.88687-0.91211 0.88559 0.91079 0 0 1 0.88687-0.91015zm-5.551 3.4141c0.35926 0.0241 0.69905 0.11778 1.0179 0.2832 0.31876 0.16537 0.58896 0.37857 0.8109 0.63868 0.22194 0.2601 0.39092 0.56357 0.50895 0.91015 0.11808 0.34654 0.16586 0.70473 0.14243 1.0742-0.0361 0.56843-0.22506 1.074-0.56592 1.5156l1.2097 1.416c0.0869 0.10181 0.12457 0.22056 0.11584 0.35742-9e-3 0.13434-0.0635 0.24811-0.16522 0.33985-0.10159 0.0918-0.2169 0.13181-0.34753 0.12304-0.13575-9e-3 -0.24624-0.0657-0.33044-0.16992l-1.2078-1.4121c-0.47001 0.29023-0.98166 0.41794-1.5345 0.38086-0.35925-0.0241-0.69909-0.11973-1.0179-0.28515-0.31875-0.16542-0.58896-0.37657-0.81091-0.63672-0.22194-0.26011-0.39091-0.56362-0.50894-0.91016-0.11808-0.34663-0.16587-0.70473-0.14244-1.0742 0.0234-0.36948 0.11643-0.71899 0.27727-1.0469 0.16079-0.32784 0.36619-0.60573 0.6191-0.83399 0.2529-0.22826 0.54797-0.40205 0.88496-0.52343 0.33695-0.12144 0.68524-0.17059 1.0445-0.14649zm-0.0626 0.99219c-0.46477-0.0312-0.873 0.11204-1.2249 0.42969-0.35189 0.31759-0.54321 0.71536-0.57352 1.1934-0.0303 0.47804 0.10895 0.8978 0.4178 1.2598 0.30885 0.36191 0.69557 0.55867 1.1603 0.58984 0.46481 0.0312 0.87295-0.11204 1.2249-0.42968 0.3519-0.31765 0.54321-0.71532 0.57352-1.1934 0.0303-0.478-0.10894-0.89785-0.41779-1.2598-0.3089-0.36192-0.69558-0.55867-1.1603-0.58984z" fill="currentColor"/>
</svg>
